;FLAVOR:UltiGCode
;TIME:31031
;MATERIAL:36236
;MATERIAL2:0
;NOZZLE_DIAMETER:0.400000
;NOZZLE_DIAMETER2:0.400000

;Layer count: 290
;LAYER:0
M107
G0 F9000 X43.828 Y79.836 Z0.300
;TYPE:SKIRT
G1 F1200 X68.828 Y79.636 E3.00010
G1 X68.828 Y72.168 E3.89626
G1 X91.317 Y72.168 E6.59494
G1 X91.317 Y59.568 E8.10694
G1 X132.317 Y59.568 E13.02694
G1 X132.317 Y72.903 E14.62714
G1 X178.672 Y72.903 E20.18974
G1 X178.672 Y163.433 E31.05334
G1 X121.162 Y163.433 E37.95454
G1 X121.162 Y146.168 E40.02634
G1 X89.808 Y146.168 E43.78882
G1 X72.693 Y129.055 E46.69316
G1 X68.828 Y127.125 E47.21157
G1 X68.828 Y122.100 E47.81457
G1 X43.828 Y121.900 E50.81466
G1 X43.828 Y79.836 E55.86234
G0 F9000 X44.228 Y80.233
G1 F1200 X69.228 Y80.033 E58.86244
G1 X69.228 Y72.568 E59.75824
G1 X91.717 Y72.568 E62.45692
G1 X91.717 Y59.968 E63.96892
G1 X131.917 Y59.968 E68.79292
G1 X131.917 Y73.303 E70.39312
G1 X178.272 Y73.303 E75.95572
G1 X178.272 Y163.033 E86.72332
G1 X121.562 Y163.033 E93.52852
G1 X121.562 Y145.768 E95.60032
G1 X89.974 Y145.768 E99.39088
G1 X72.930 Y128.726 E102.28317
G1 X69.228 Y126.877 E102.77974
G1 X69.228 Y121.703 E103.40062
G1 X44.228 Y121.503 E106.40072
G1 X44.228 Y80.233 E111.35312
G0 F9000 X44.628 Y80.630
G1 F1200 X69.628 Y80.430 E114.35321
G1 X69.628 Y72.968 E115.24865
G1 X92.117 Y72.968 E117.94733
G1 X92.117 Y60.368 E119.45933
G1 X131.517 Y60.368 E124.18733
G1 X131.517 Y73.703 E125.78753
G1 X177.872 Y73.703 E131.35013
G1 X177.872 Y162.633 E142.02173
G1 X121.962 Y162.633 E148.73093
G1 X121.962 Y145.368 E150.80273
G1 X90.140 Y145.368 E154.62137
G1 X73.168 Y128.397 E157.50153
G1 X69.628 Y126.630 E157.97631
G1 X69.628 Y121.306 E158.61519
G1 X44.628 Y121.106 E161.61529
G1 X44.628 Y80.630 E166.47241
G0 F9000 X45.028 Y81.027
G1 F1200 X70.028 Y80.827 E169.47250
G1 X70.028 Y73.368 E170.36758
G1 X92.517 Y73.368 E173.06626
G1 X92.517 Y60.768 E174.57826
G1 X131.117 Y60.768 E179.21026
G1 X131.117 Y74.103 E180.81046
G1 X177.472 Y74.103 E186.37306
G1 X177.472 Y162.233 E196.94866
G1 X122.362 Y162.233 E203.56186
G1 X122.362 Y144.968 E205.63366
G1 X90.305 Y144.968 E209.48050
G1 X73.403 Y128.068 E212.34870
G1 X70.028 Y126.383 E212.80137
G1 X70.028 Y120.909 E213.45825
G1 X45.028 Y120.709 E216.45834
G1 X45.028 Y81.027 E221.22018
G0 F9000 X45.428 Y81.423
G1 F1200 X70.428 Y81.223 E224.22028
G1 X70.428 Y73.768 E225.11488
G1 X92.917 Y73.768 E227.81356
G1 X92.917 Y61.168 E229.32556
G1 X130.717 Y61.168 E233.86156
G1 X130.717 Y74.503 E235.46176
G1 X177.072 Y74.503 E241.02436
G1 X177.072 Y161.833 E251.50396
G1 X122.762 Y161.833 E258.02116
G1 X122.762 Y144.568 E260.09296
G1 X90.471 Y144.568 E263.96788
G1 X73.639 Y127.738 E266.82420
G1 X70.428 Y126.135 E267.25486
G1 X70.428 Y120.513 E267.92950
G1 X45.428 Y120.313 E270.92960
G1 X45.428 Y81.423 E275.59640
G0 F9000 X45.828 Y81.820
G1 F1200 X70.828 Y81.620 E278.59650
G1 X70.828 Y74.168 E279.49074
G1 X93.317 Y74.168 E282.18942
G1 X93.317 Y61.568 E283.70142
G1 X130.317 Y61.568 E288.14142
G1 X130.317 Y74.903 E289.74162
G1 X176.672 Y74.903 E295.30422
G1 X176.672 Y161.433 E305.68782
G1 X123.162 Y161.433 E312.10902
G1 X123.162 Y144.168 E314.18082
G1 X90.637 Y144.168 E318.08382
G1 X73.877 Y127.410 E320.92791
G1 X70.828 Y125.888 E321.33684
G1 X70.828 Y120.116 E322.02948
G1 X45.828 Y119.916 E325.02958
G1 X45.828 Y81.820 E329.60110
G0 F9000 X46.228 Y82.217
G1 F1200 X71.228 Y82.017 E332.60120
G1 X71.228 Y74.568 E333.49508
G1 X93.717 Y74.568 E336.19376
G1 X93.717 Y61.968 E337.70576
G1 X129.917 Y61.968 E342.04976
G1 X129.917 Y75.303 E343.64996
G1 X176.272 Y75.303 E349.21256
G1 X176.272 Y161.033 E359.50016
G1 X123.562 Y161.033 E365.82536
G1 X123.562 Y143.768 E367.89716
G1 X90.802 Y143.768 E371.82836
G1 X74.113 Y127.081 E374.66040
G1 X71.228 Y125.641 E375.04733
G1 X71.228 Y119.719 E375.75797
G1 X46.228 Y119.519 E378.75807
G1 X46.228 Y82.217 E383.23431
G0 F9000 X46.628 Y82.614
G1 F1200 X71.628 Y82.414 E386.23440
G1 X71.628 Y74.968 E387.12792
G1 X94.117 Y74.968 E389.82660
G1 X94.117 Y62.368 E391.33860
G1 X129.517 Y62.368 E395.58660
G1 X129.517 Y75.703 E397.18680
G1 X175.872 Y75.703 E402.74940
G1 X175.872 Y160.633 E412.94100
G1 X123.962 Y160.633 E419.17020
G1 X123.962 Y143.368 E421.24200
G1 X90.968 Y143.368 E425.20128
G1 X74.349 Y126.751 E428.02145
G1 X71.628 Y125.393 E428.38638
G1 X71.628 Y119.322 E429.11490
G1 X46.628 Y119.122 E432.11500
G1 X46.628 Y82.614 E436.49596
G0 F9000 X47.028 Y83.011
G1 F1200 X72.028 Y82.811 E439.49605
G1 X72.028 Y75.368 E440.38921
G1 X94.517 Y75.368 E443.08789
G1 X94.517 Y62.768 E444.59989
G1 X129.117 Y62.768 E448.75189
G1 X129.117 Y76.103 E450.35209
G1 X175.472 Y76.103 E455.91469
G1 X175.472 Y160.233 E466.01029
G1 X124.362 Y160.233 E472.14349
G1 X124.362 Y142.968 E474.21529
G1 X91.134 Y142.968 E478.20265
G1 X74.589 Y126.425 E481.01026
G1 X72.028 Y125.146 E481.35377
G1 X72.028 Y118.925 E482.10029
G1 X47.028 Y118.725 E485.10039
G1 X47.028 Y83.011 E489.38607
G0 F9000 X47.428 Y83.407
G1 F1200 X72.428 Y83.207 E492.38617
G1 X72.428 Y75.768 E493.27885
G1 X94.917 Y75.768 E495.97753
G1 X94.917 Y63.168 E497.48953
G1 X128.717 Y63.168 E501.54553
G1 X128.717 Y76.503 E503.14573
G1 X175.072 Y76.503 E508.70833
G1 X175.072 Y159.833 E518.70793
G1 X124.762 Y159.833 E524.74513
G1 X124.762 Y142.568 E526.81693
G1 X91.299 Y142.568 E530.83249
G1 X74.824 Y126.095 E533.62822
G1 X72.428 Y124.898 E533.94962
G1 X72.428 Y118.529 E534.71390
G1 X47.428 Y118.329 E537.71400
G1 X47.428 Y83.407 E541.90464
G0 F9000 X47.828 Y83.804
G1 F1200 X72.828 Y83.604 E544.90473
G1 X72.828 Y76.168 E545.79705
G1 X95.317 Y76.168 E548.49573
G1 X95.317 Y63.568 E550.00773
G1 X128.317 Y63.568 E553.96773
G1 X128.317 Y76.903 E555.56793
G1 X174.672 Y76.903 E561.13053
G1 X174.672 Y159.433 E571.03413
G1 X125.162 Y159.433 E576.97533
G1 X125.162 Y142.168 E579.04713
G1 X91.465 Y142.168 E583.09077
G1 X75.061 Y125.766 E585.87445
G1 X72.828 Y124.651 E586.17396
G1 X72.828 Y118.132 E586.95624
G1 X47.828 Y117.932 E589.95634
G1 X47.828 Y83.804 E594.05170
G0 F9000 X48.228 Y84.201
G1 F1200 X73.228 Y84.001 E597.05179
G1 X73.228 Y76.568 E597.94375
G1 X95.717 Y76.568 E600.64243
G1 X95.717 Y63.968 E602.15443
G1 X127.917 Y63.968 E606.01843
G1 X127.917 Y77.303 E607.61863
G1 X174.272 Y77.303 E613.18123
G1 X174.272 Y159.033 E622.98883
G1 X125.562 Y159.033 E628.83403
G1 X125.562 Y141.768 E630.90583
G1 X91.631 Y141.768 E634.97755
G1 X75.299 Y125.438 E637.74902
G1 X73.228 Y124.404 E638.02679
G1 X73.228 Y117.735 E638.82707
G1 X48.228 Y117.535 E641.82717
G1 X48.228 Y84.201 E645.82725
G0 F9000 X48.628 Y84.598
G1 F1200 X73.628 Y84.398 E648.82734
G1 X73.628 Y76.968 E649.71894
G1 X96.117 Y76.968 E652.41762
G1 X96.117 Y64.368 E653.92962
G1 X127.517 Y64.368 E657.69762
G1 X127.517 Y77.703 E659.29782
G1 X173.872 Y77.703 E664.86042
G1 X173.872 Y158.633 E674.57202
G1 X125.962 Y158.633 E680.32122
G1 X125.962 Y141.368 E682.39302
G1 X91.796 Y141.368 E686.49294
G1 X75.536 Y125.109 E689.25227
G1 X73.628 Y124.156 E689.50820
G1 X73.628 Y117.338 E690.32636
G1 X48.628 Y117.138 E693.32646
G1 X48.628 Y84.598 E697.23126
G0 F9000 X49.028 Y84.995
G1 F1200 X74.028 Y84.795 E700.23135
G1 X74.028 Y77.368 E701.12259
G1 X96.517 Y77.368 E703.82127
G1 X96.517 Y64.768 E705.33327
G1 X127.117 Y64.768 E709.00527
G1 X127.117 Y78.103 E710.60547
G1 X173.472 Y78.103 E716.16807
G1 X173.472 Y158.233 E725.78367
G1 X126.362 Y158.233 E731.43687
G1 X126.362 Y140.968 E733.50867
G1 X91.962 Y140.968 E737.63667
G1 X75.771 Y124.779 E740.38421
G1 X74.028 Y123.909 E740.61798
G1 X74.028 Y116.941 E741.45414
G1 X49.028 Y116.741 E744.45423
G1 X49.028 Y84.995 E748.26375
G0 F9000 X49.428 Y85.392
G1 F1200 X74.428 Y85.191 E751.26385
G1 X74.428 Y77.768 E752.15461
G1 X96.917 Y77.768 E754.85329
G1 X96.917 Y65.168 E756.36529
G1 X126.717 Y65.168 E759.94129
G1 X126.717 Y78.503 E761.54149
G1 X173.072 Y78.503 E767.10409
G1 X173.072 Y157.833 E776.62369
G1 X126.762 Y157.833 E782.18089
G1 X126.762 Y140.568 E784.25269
G1 X92.128 Y140.568 E788.40877
G1 X76.007 Y124.450 E791.14434
G1 X74.428 Y123.662 E791.35610
G1 X74.428 Y116.545 E792.21014
G1 X49.428 Y116.344 E795.21024
G1 X49.428 Y85.392 E798.92448
G0 F9000 X49.828 Y85.788
G1 F1200 X74.828 Y85.588 E801.92458
G1 X74.828 Y78.168 E802.81498
G1 X97.317 Y78.168 E805.51366
G1 X97.317 Y65.568 E807.02566
G1 X126.317 Y65.568 E810.50566
G1 X126.317 Y78.903 E812.10586
G1 X172.672 Y78.903 E817.66846
G1 X172.672 Y157.433 E827.09206
G1 X127.162 Y157.433 E832.55326
G1 X127.162 Y140.168 E834.62506
G1 X92.293 Y140.168 E838.80934
G1 X76.244 Y124.120 E841.53286
G1 X74.828 Y123.414 E841.72273
G1 X74.828 Y116.148 E842.59465
G1 X49.828 Y115.948 E845.59474
G1 X49.828 Y85.788 E849.21394
G0 F9000 X50.228 Y86.185
G1 F1200 X75.228 Y85.985 E852.21404
G1 X75.228 Y78.568 E853.10408
G1 X97.717 Y78.568 E855.80276
G1 X97.717 Y65.968 E857.31476
G1 X125.917 Y65.968 E860.69876
G1 X125.917 Y79.303 E862.29896
G1 X172.272 Y79.303 E867.86156
G1 X172.272 Y157.033 E877.18916
G1 X127.562 Y157.033 E882.55436
G1 X127.562 Y139.768 E884.62616
G1 X92.459 Y139.768 E888.83852
G1 X76.482 Y123.793 E891.54974
G1 X75.228 Y123.167 E891.71792
G1 X75.228 Y115.751 E892.60784
G1 X50.228 Y115.551 E895.60794
G1 X50.228 Y86.185 E899.13186
G0 F9000 X50.628 Y86.582
G1 F1200 X75.628 Y86.382 E902.13196
G1 X75.628 Y78.968 E903.02164
G1 X98.117 Y78.968 E905.72032
G1 X98.117 Y66.368 E907.23232
G1 X125.517 Y66.368 E910.52032
G1 X125.517 Y79.703 E912.12052
G1 X171.872 Y79.703 E917.68312
G1 X171.872 Y156.633 E926.91472
G1 X127.962 Y156.633 E932.18392
G1 X127.962 Y139.368 E934.25572
G1 X92.625 Y139.368 E938.49616
G1 X76.720 Y123.465 E941.19515
G1 X75.628 Y122.919 E941.34166
G1 X75.628 Y115.354 E942.24946
G1 X50.628 Y115.154 E945.24956
G1 X50.628 Y86.582 E948.67820
G0 F9000 X51.028 Y86.979
G1 F1200 X76.028 Y86.779 E951.67829
G1 X76.028 Y79.368 E952.56761
G1 X98.517 Y79.368 E955.26629
G1 X98.517 Y66.768 E956.77829
G1 X125.117 Y66.768 E959.97029
G1 X125.117 Y80.103 E961.57049
G1 X171.472 Y80.103 E967.13309
G1 X171.472 Y156.233 E976.26869
G1 X128.362 Y156.233 E981.44189
G1 X128.362 Y138.968 E983.51369
G1 X92.790 Y138.968 E987.78233
G1 X76.957 Y123.136 E990.46920
G1 X76.028 Y122.672 E990.59381
G1 X76.028 Y114.957 E991.51961
G1 X51.028 Y114.757 E994.51970
G1 X51.028 Y86.979 E997.85306
G0 F9000 X51.428 Y87.376
G1 F1200 X76.428 Y87.176 E1000.85316
G1 X76.428 Y79.768 E1001.74212
G1 X98.917 Y79.768 E1004.44080
G1 X98.917 Y67.168 E1005.95280
G1 X124.717 Y67.168 E1009.04880
G1 X124.717 Y80.503 E1010.64900
G1 X171.072 Y80.503 E1016.21160
G1 X171.072 Y155.833 E1025.25120
G1 X128.762 Y155.833 E1030.32840
G1 X128.762 Y138.568 E1032.40020
G1 X92.956 Y138.568 E1036.69692
G1 X77.194 Y122.807 E1039.37174
G1 X76.428 Y122.425 E1039.47445
G1 X76.428 Y114.560 E1040.41825
G1 X51.428 Y114.360 E1043.41835
G1 X51.428 Y87.376 E1046.65643
G0 F9000 X99.717 Y67.968
;TYPE:WALL-INNER
G1 F1200 X123.917 Y67.968 E1049.56043
G1 X123.917 Y81.303 E1051.16063
G1 X170.272 Y81.303 E1056.72323
G1 X170.272 Y155.033 E1065.57083
G1 X129.562 Y155.033 E1070.45603
G1 X129.562 Y105.502 E1076.39975
G1 X123.917 Y105.502 E1077.07715
G1 X123.917 Y123.917 E1079.28695
G1 X99.717 Y123.917 E1082.19095
G1 X99.717 Y67.968 E1088.90483
G0 F9000 X99.317 Y67.568
;TYPE:WALL-OUTER
G1 F1200 X124.317 Y67.568 E1091.90483
G1 X124.317 Y80.903 E1093.50503
G1 X170.672 Y80.903 E1099.06763
G1 X170.672 Y155.433 E1108.01123
G1 X129.162 Y155.433 E1112.99243
G1 X129.162 Y105.902 E1118.93615
G1 X124.317 Y105.902 E1119.51755
G1 X124.317 Y124.317 E1121.72735
G1 X99.317 Y124.317 E1124.72735
G1 X99.317 Y67.568 E1131.53723
G0 F9000 X99.856 Y68.460
;TYPE:SKIN
G1 F900 X170.131 Y138.735 E1143.46329
G0 F9000 X170.131 Y138.170
G1 F900 X100.069 Y68.108 E1155.35321
G0 F9000 X100.635 Y68.108
G1 F900 X170.131 Y137.604 E1167.14707
G0 F9000 X170.131 Y137.038
G1 F900 X101.201 Y68.108 E1178.84488
G0 F9000 X101.766 Y68.108
G1 F900 X170.131 Y136.473 E1190.44680
G0 F9000 X170.131 Y135.907
G1 F900 X102.332 Y68.108 E1201.95268
G0 F9000 X102.898 Y68.108
G1 F900 X170.131 Y135.341 E1213.36249
G0 F9000 X170.131 Y134.775
G1 F900 X103.463 Y68.108 E1224.67634
G0 F9000 X104.029 Y68.108
G1 F900 X170.131 Y134.210 E1235.89422
G0 F9000 X170.131 Y133.644
G1 F900 X104.595 Y68.108 E1247.01605
G0 F9000 X105.160 Y68.108
G1 F900 X170.131 Y133.078 E1258.04191
G0 F9000 X170.131 Y132.513
G1 F900 X105.726 Y68.108 E1268.97180
G0 F9000 X106.292 Y68.108
G1 F900 X170.131 Y131.947 E1279.80564
G0 F9000 X170.131 Y131.381
G1 F900 X106.857 Y68.108 E1290.54351
G0 F9000 X107.423 Y68.108
G1 F900 X170.131 Y130.816 E1301.18541
G0 F9000 X170.131 Y130.250
G1 F900 X107.989 Y68.108 E1311.73126
G0 F9000 X108.555 Y68.108
G1 F900 X170.131 Y129.684 E1322.18105
G0 F9000 X170.131 Y129.119
G1 F900 X109.120 Y68.108 E1332.53496
G0 F9000 X109.686 Y68.108
G1 F900 X170.131 Y128.553 E1342.79282
G0 F9000 X170.131 Y127.987
G1 F900 X110.252 Y68.108 E1352.95462
G0 F9000 X110.817 Y68.108
G1 F900 X123.776 Y81.066 E1355.15375
G0 F9000 X124.152 Y81.443
G1 F900 X170.131 Y127.422 E1362.95665
G0 F9000 X170.131 Y126.856
G1 F900 X124.718 Y81.443 E1370.66349
G0 F9000 X125.283 Y81.443
G1 F900 X170.131 Y126.290 E1378.27436
G0 F9000 X170.131 Y125.724
G1 F900 X125.849 Y81.443 E1385.78918
G0 F9000 X126.415 Y81.443
G1 F900 X170.131 Y125.159 E1393.20803
G0 F9000 X170.131 Y124.593
G1 F900 X126.980 Y81.443 E1400.53091
G0 F9000 X127.546 Y81.443
G1 F900 X170.131 Y124.027 E1407.75774
G0 F9000 X170.131 Y123.462
G1 F900 X128.112 Y81.443 E1414.88860
G0 F9000 X128.677 Y81.443
G1 F900 X170.131 Y122.896 E1421.92350
G0 F9000 X170.131 Y122.330
G1 F900 X129.243 Y81.443 E1428.86234
G0 F9000 X129.809 Y81.443
G1 F900 X170.131 Y121.765 E1435.70521
G0 F9000 X170.131 Y121.199
G1 F900 X130.374 Y81.443 E1442.45211
G0 F9000 X130.940 Y81.443
G1 F900 X170.131 Y120.633 E1449.10296
G0 F9000 X170.131 Y120.068
G1 F900 X131.506 Y81.443 E1455.65784
G0 F9000 X132.071 Y81.443
G1 F900 X170.131 Y119.502 E1462.11675
G0 F9000 X170.131 Y118.936
G1 F900 X132.637 Y81.443 E1468.47961
G0 F9000 X133.203 Y81.443
G1 F900 X170.131 Y118.371 E1474.74650
G0 F9000 X170.131 Y117.805
G1 F900 X133.769 Y81.443 E1480.91733
G0 F9000 X134.334 Y81.443
G1 F900 X170.131 Y117.239 E1486.99220
G0 F9000 X170.131 Y116.674
G1 F900 X134.900 Y81.443 E1492.97110
G0 F9000 X135.466 Y81.443
G1 F900 X170.131 Y116.108 E1498.85394
G0 F9000 X170.131 Y115.542
G1 F900 X136.031 Y81.443 E1504.64082
G0 F9000 X136.597 Y81.443
G1 F900 X170.131 Y114.976 E1510.33164
G0 F9000 X170.131 Y114.411
G1 F900 X137.163 Y81.443 E1515.92650
G0 F9000 X137.728 Y81.443
G1 F900 X170.131 Y113.845 E1521.42539
G0 F9000 X170.131 Y113.279
G1 F900 X138.294 Y81.443 E1526.82822
G0 F9000 X138.860 Y81.443
G1 F900 X170.131 Y112.714 E1532.13508
G0 F9000 X170.131 Y112.148
G1 F900 X139.425 Y81.443 E1537.34598
G0 F9000 X139.991 Y81.443
G1 F900 X170.131 Y111.582 E1542.46082
G0 F9000 X170.131 Y111.017
G1 F900 X140.557 Y81.443 E1547.47970
G0 F9000 X141.122 Y81.443
G1 F900 X170.131 Y110.451 E1552.40260
G0 F9000 X170.131 Y109.885
G1 F900 X141.688 Y81.443 E1557.22945
G0 F9000 X142.254 Y81.443
G1 F900 X170.131 Y109.320 E1561.96034
G0 F9000 X170.131 Y108.754
G1 F900 X142.820 Y81.443 E1566.59517
G0 F9000 X143.385 Y81.443
G1 F900 X170.131 Y108.188 E1571.13403
G0 F9000 X170.131 Y107.623
G1 F900 X143.951 Y81.443 E1575.57692
G0 F9000 X144.517 Y81.443
G1 F900 X170.131 Y107.057 E1579.92376
G0 F9000 X170.131 Y106.491
G1 F900 X145.082 Y81.443 E1584.17464
G0 F9000 X145.648 Y81.443
G1 F900 X170.131 Y105.926 E1588.32954
G0 F9000 X170.131 Y105.360
G1 F900 X146.214 Y81.443 E1592.38839
G0 F9000 X146.779 Y81.443
G1 F900 X170.131 Y104.794 E1596.35127
G0 F9000 X170.131 Y104.228
G1 F900 X147.345 Y81.443 E1600.21810
G0 F9000 X147.911 Y81.443
G1 F900 X170.131 Y103.663 E1603.98896
G0 F9000 X170.131 Y103.097
G1 F900 X148.476 Y81.443 E1607.66385
G0 F9000 X149.042 Y81.443
G1 F900 X170.131 Y102.531 E1611.24268
G0 F9000 X170.131 Y101.966
G1 F900 X149.608 Y81.443 E1614.72555
G0 F9000 X150.173 Y81.443
G1 F900 X170.131 Y101.400 E1618.11245
G0 F9000 X170.131 Y100.834
G1 F900 X150.739 Y81.443 E1621.40330
G0 F9000 X151.305 Y81.443
G1 F900 X170.131 Y100.269 E1624.59818
G0 F9000 X170.131 Y99.703
G1 F900 X151.870 Y81.443 E1627.69709
G0 F9000 X152.436 Y81.443
